src/assets/img/favicon.svg

<svg viewBox="0 0 128 128" xmlns="http://www.w3.org/2000/svg"><path d="m0 0h128v128h-128z" fill="#1d122f"/><path d="m97.1258 51.4075 10.015-10.015a2.933 2.933 0 0 0 .8592-2.0742v-16.385a5.8667 5.8667 0 0 0 -5.8667-5.8666h-46.9333a35.2 35.2 0 0 0 -35.2 35.2v23.4666a35.2 35.2 0 0 0 35.2 35.2h46.9333a5.8667 5.8667 0 0 0 5.8667-5.8666v-16.385a2.933 2.933 0 0 0 -.8592-2.0742l-10.015-10.015a2.9334 2.9334 0 0 0 -2.0742-.8592h-7.5849a2.9334 2.9334 0 0 0 -2.9334 2.9334v8.8h-29.3333a11.7334 11.7334 0 0 1 -11.7333-11.7334v-23.4666a11.7334 11.7334 0 0 1 11.7333-11.7334h29.3333v8.8a2.9334 2.9334 0 0 0 2.9334 2.9334h7.5849a2.9334 2.9334 0 0 0 2.0742-.8592z" fill="#ffe4c2"/></svg>

<svg viewBox="0 0 128 128" xmlns="http://www.w3.org/2000/svg"><path d="M0 0h128v128H0z" fill="#1d122f"/><path d="M97.126 51.407l10.015-10.014a2.933 2.933 0 0 0 .859-2.075V22.933a5.867 5.867 0 0 0-5.867-5.866H55.2a35.2 35.2 0 0 0-35.2 35.2v23.466a35.2 35.2 0 0 0 35.2 35.2h46.933a5.867 5.867 0 0 0 5.867-5.866V88.682a2.933 2.933 0 0 0-.86-2.075L97.127 76.592a2.933 2.933 0 0 0-2.074-.859h-7.585a2.933 2.933 0 0 0-2.934 2.934v8.8H55.2a11.733 11.733 0 0 1-11.733-11.734V52.267A11.733 11.733 0 0 1 55.2 40.533h29.333v8.8a2.933 2.933 0 0 0 2.934 2.934h7.585a2.933 2.933 0 0 0 2.074-.86z" fill="#ffe4c2"/></svg>
